!!!COM: Corelli, Arcangelo
!!!OPR: Sonata da camera
!!!OPS: 4
!!!ONM: 9
!!!OMV: 3
!!!OMD: Grave
**kern	**cdata-harm	**fb	**kern	**kern
*part3	*above	*part3	*part2	*part1
*staff3	*	*	*staff2	*staff1
*I"Violone & Cembalo	*	*	*I"Violino II	*I"Violino I
*clefF4	*	*	*clefG2	*clefG2
*k[b-]	*	*	*k[b-]	*k[b-]
*g:	*g:	*	*g:	*g:
*M4/4	*	*	*M4/4	*M4/4
*met(c)	*	*	*met(c)	*met(c)
*MM34	*	*	*MM34	*MM34
=1	=1	=1	=1	=1
4G	g.i{	.	2.dd	4b-
4F	v6	6	.	4dd
2E-X	iv6(2)	7	.	4g
.	iv6	6	4cc	[4gg
=2	=2	=2	=2	=2
4D	V(64)	6 4	4b-	4gg]
2d	v	5	4a	4ff
.	iv(2)	4 -2	4.g	4.ee-X
[4c	iv	-	.	.
.	.	.	8g	8ee-
=3	=3	=3	=3	=3
4c]	V2	#4| 2	4f#X	4.dd
4B-	i6	6	2g	.
.	.	.	.	8g
4A	ii7	7	.	4.cc
4D	V	7 #	4f#	.
.	.	.	.	8dd
=4	=4	=4	=4	=4
4G	VI6|EC	.	4b-	4ee-X
4F	v6	6	4a	2dd
2E-X	iv6(2)	7	2g	.
.	iv6	6	.	4cc
=5	=5	=5	=5	=5
4.D	V|HC}	#	2f#X	4dd
.	{	.	.	2aa
8C	V2	4 2	.	.
2BB-	v.iv6(2)	7	4r	.
.	iv6	6	[4dd	4gg
=6	=6	=6	=6	=6
4AA	V(64)	6 4	4dd]	4ff
2A	v	5	4cc	4ee
.	iv(2)	4 2	2b-	2dd
[4G	iv	5	.	.
=7	=7	=7	=7	=7
*d:	*d:	*	*d:	*d:
4G]	V2	#4| 2	2a	4cc#X
2F	i6	6	.	4dd
*c:	*c:	*	*c:	*c:
.	iv.V2	#4| 2	4g	4bn
4E-X	i6	6	4gg	[4ccn
=8	=8	=8	=8	=8
4D	ii7	7	4ff	4cc]
4G	V	n	2dd	4bn
4C	i(9)|EC	9 -	.	[2ee-X
4c	i	8	8ccL	.
.	.	.	8b-J	.
=9	=9	=9	=9	=9
*g:	*g:	*	*g:	*g:
2F#X	i.V6(2)	-7	4a	4ee-]
.	V65	6	2aa	8ddL
.	.	.	.	8ccJ
4G	i(2)	9	.	8b-XiL
.	.	.	.	8ccJ
4BBn	V65/iv	6	8ggL	[4dd
.	.	5	8ffJ	.
=10	=10	=10	=10	=10
4C	iv(2)	9 -	2ee-X	4dd]
2c	iv	8	.	4cc
.	V2	#4| 2	4.dd	4f#X
8B-XiL	i6	6	.	[4g
8cJ	iv	.	8ee-	.
=11	=11	=11	=11	=11
4d	V(64)	6 4	4b-	4g]
4D	V	5 #	4a	4f#X
4G	i|PAC}	.	4g	4g
4F	v6{	6	4a	[4dd
=12	=12	=12	=12	=12
2E-X	iv6(2)	7	2g	4dd]
.	iv6	6	.	4cc
2D	V|HC}	#	2f#X	2dd
==	==	==	==	==
*-	*-	*-	*-	*-
!!!system-decoration: [{s1,s2},s3]
!!!YEM: CC BY-NC-SA 4.0; CCARH; DCML
!!!RDF**kern: i = editorial accidental